X: 36492
T: September The Fourth
R: polka
M: 2/4
K: Eminor
E E/D/ E/F/ G/A/|B B/A/ B/G/ E|c B/A/ B/G/ E|F G A G/F/|
E E/D/ E/F/ G/A/|B B/A/ B/G/ E|c B/A/ B/G/ E|F G A2||
e c B2|c B/A/ B/G/ E|c B/A/ B/G/ E|F G A2|
e c B2|c B/A/ B/G/ E|c B/A/ B/G/ E/F/|G F E2||

